X:139
T:Durang's Hornpipe Al Lester's Version
C:
N:Transcribed by Vance Henry
R:bluegrass
L:1/8
Q:1/4=214
M:4/4
K:C
[^F^C]D [FD][FD] [F4D4] | [^F^C]D [FD][FD] [F2D2] B,[DD] | [D2D2] DE ^FG AF | 
GA B^c dB A^F | B,[DD] DE ^FG AF | E^F ED ^CA, B,2 | D2 DE ^FD EF | GA B^c dA (3c=cB | 
A^c eg bg c2 | d6 B,[DD] | [D2D2] DE ^FG AF | GA B^c dB A^F | D^F AF =F^F DB, | 
A,^C EC A,E C2 | D2 DE ^FD EF | GA B^c dA (3c=cB | A^c eg bg c2 | d6 (3AB^c | 
d2 ^fd ^cd ec | B^c (3dcB A^F (3DEF | G2 BG ^FG AF | E^F E^C A,2 (3d^cB | A^F Ad ^fe dc | 
Bd Bd gb gb | e^f ge bg ^c2 | d6 (3AB^c | d2 ^fd ^cd ec | B^c (3dcB A^F (3DEF | 
G2 BG ^F2 AF | E^F ED ^C2 (3A,B,C | [D2D2] DE ^FD EF | GA B^c dA (3c=cB | A^c eg bg c2 | 
d6 (3[dD][^cD][BD] | [A2D2] [^fA][gA] [fA][eA] dB | [B2G2G,2] [gBDG,][aBDG,] [gBDG,]e dB | 
[AD]f ^fa fe df | ed ^cd [e2e2] (3dcB | A^F Ad ^fe dc | Bd Bd gb gb | e^f ge bg ^c2 | 
d6 (3[dD][^cD][BD] | [A2D2] [^fA][gA] [fA][eA] dB | [B2G2G,2] [gBDG,][aBDG,] [gBDG,]e dB | 
[AD]f ^fa fe df | ed ^cd [e2e2] (3dcB | A^F Ad ^fe dc | Bd Bd gb gb | e^f ge bg ^c2 | 
d6 [^f2B2] | [ad]^f ad fa df | ga b^c' d'b a^f | d^f ad fa df | (3a^g^f ed ^c4 | 
d3e ^fe d2 | B3d g2 g^f | e^f ge bg ^c2 | d6 [^f2B2] | [ad]^f ad fa df | ga b^c' d'b a^f | 
d^f ad fa df | (3a^g^f ed ^c4 | [ad]^f ad fa df | ga b^c' d'2 d'e | e^f ge bg ^c2 | 
d6 ag | ^fd ^cd fd cd | Bd Bd ge ag | ^fd ^cd fd cd | A^c e^g a2 a=g | ^fd ^cd fd cd | 
Bd Bd gb gb | e^f ge bg ^c2 | d8 | [A6^F6] [A3/2G3/2][A/G/] | [d6B6] [B2G2] | 
[A4^F4] [B2G2] [A2F2] | [A2^F2] [G6E6] | [A8^F8] | ^F/G7/2 B2 dB | A^c eg be c2 | 
d6 [^g2f2] | [a6^f6] [_b2f2] | [b6g6] [^g2f2] | [_b^f][ge] [f4d4] ^F2 | G2 ^c6 | 
[A8^F8] | GA B^c d2 (3BcB | A^c eg be c2 | d8 | [dA][dA] [^fd][dA] [dA][fd] [dA][dA] | 
[dA][dA] [gd][dA] [ad][dA] [gdA][dA] | [dA][dA] [^fd][dA] [dA][fd] [dA][dA] | 
[G^C][GC] [^cG][GC] [GC][cG] [GC][GC] | [dA][dA] [^fd][dA] [dA][fd] [dA][dA] | 
GA B^c d2 (3c=cB | A^c eg bg c2 | d8 | D^F AF DF AF | GA B^c dB A^F | D^F AF DF AF | 
A,^C EC A,C EC | D^F AF DF AF | GA B^c d2 (3c=cB | A^c eg bg c2 | d6 (3AB^c | 
d2 ^fb af ed | B^c dB A^F (3DEF | G2 BG ^FG AF | E^F ED ^CA, (3A,B,C | D2 DE ^FD EF | 
GA B^c d2 (3BcB | A^c eg bg c2 | d6 (3AB^c | d2 ^fb af ed | B^c dB A^F (3DEF | 
G2 BG ^FG AF | E^F ED ^CA, dB | A^F Ad ^f3d | BG Bd g3^f | e^f ge bg ^c2 | d8 | 
[^f3A3][gA] [f3A3]d | [B2D2] [g4B4] a2 | ^f3a fe ^cd | ed ^cd e2 a2 | ^f3g fe dc | 
BG Bd gb gb | e^f ge bg ^c2 | d7/1[DB,] | [D2D2] DE ^FG AF | GA B^c dB A^F | [D2D2] DE ^FG AF | 
E^F ED ^CA, (3A,B,C | [D2D2] DE ^FD EF | GA B^c dA (3c=cB | A^c eg bg c2 | d7/1[DB,] | 
[D2D2] DE ^FG AF | GA B^c dB A^F | D^F AF DF A[DD] | A,^C EC A,C EC | [D2D2] DE ^FD EF | 
GA B^c dB (3c=cB | A^c eg bg c2 | d6 (3AB^c | d2 ^fd ^c2 ec | B2 dB A^F (3DEF | 
G2 BG ^FG AF | E^F ED ^CA, (3A,B,C | D2 DE ^FD EF | GA B^c d2 (3BcB | A^c eg bg c2 | 
d6 (3AB^c | d2 ^fb af ed | B^c dB A^F (3DEF | G2 BG ^FG AF | E^F ED ^CA, (3A,B,C | 
D2 DE ^FD EF | GA B^c d2 (3BcB | A^c eg bg c2 | d8 | d'b ad' ba ^fb | a^f ef d7/2=f/ | 
^f3d2B A^F | BA F^F D4 | 


